X: 31321
T: Paddy Kenny's
R: polka
M: 2/4
K: Amajor
|:AB/A/ FE|FA B/c/d|ec/e/ dB|BA FE|
A2 FE|FA Bc|e2 d/c/B|BA A2:|
|:e2 ec/e/|fe cA|Be Bc|BA F/G/A|
ec/e/ ec/e/|fe cA|Be Bc|BA A2:|

